X: 2
T: Eddie Kelly's Jig No. 2
R:double jig
M:6/8
L:1/8
K:Em
|:\
BEF G2A | BAB edc | ~B3 GAB | AFD FGA |\
BEF G2A | BAB edc | ~B3 GAB | AFD E3 :|
|:\
g2e fed | Bee Bef | gfe fed | B^cd e2f |\
gfe fed | Bee Bef | gfe fed | B^cd [1 e3 :|2 Hed=c |]
